img/logo.svg

<svg width="237" height="44" viewBox="0 0 237 44" fill="none" xmlns="http://www.w3.org/2000/svg">
<path d="M14.6667 2.068L1.37867 22L14.6667 41.932L27.9547 22L14.6667 2.068ZM14.6667 0L29.3333 22L14.6667 44L3.8147e-06 22L14.6667 0Z" fill="#FFC22D"/>
<path d="M10.6773 16.852L9.36711 18.612L8.81955 24.1853V18.0547L10.6773 16.852Z" fill="#FFC22D"/>
<path d="M14.1191 11.484L12.4178 13.2733L11.8409 15.9867V13.3613L13.1511 12.2467V12.3053L14.1191 11.484Z" fill="#FFC22D"/>
<path d="M6.40445 24.1853H8.81956L6.60978 24.596L5.67111 26.4L6.40445 24.1853Z" fill="#FFC22D"/>
<path d="M12.8089 15.356V13.7427L14.6667 12.3053V14.1093L12.8089 15.356Z" fill="#FFC22D"/>
<path d="M13.5618 26.2533H12.9849V24.4347L13.5618 24.376V26.2533Z" fill="#FFC22D"/>
<path d="M13.5618 22.308L12.9849 22.44V20.6213L13.5618 20.416V22.308Z" fill="#FFC22D"/>
<path d="M13.5618 18.612L12.9849 18.876V17.0427L13.5618 16.72V18.612Z" fill="#FFC22D"/>
<path d="M11.88 26.2533H11.4107V24.6107L11.88 24.552V26.2533Z" fill="#FFC22D"/>
<path d="M11.88 22.704L11.4107 22.8067V21.164L11.88 21.0027V22.704Z" fill="#FFC22D"/>
<path d="M11.88 19.3747L11.4107 19.58V17.9373L11.88 17.6733V19.3747Z" fill="#FFC22D"/>
<path d="M10.4329 26.2533H10.0418V24.7573L10.4329 24.7133V26.2533Z" fill="#FFC22D"/>
<path d="M10.4329 23.0413L10.0418 23.1293V21.6333L10.4329 21.5013V23.0413Z" fill="#FFC22D"/>
<path d="M10.4329 20.02L10.0418 20.196V18.7L10.4329 18.48V20.02Z" fill="#FFC22D"/>
<path d="M14.1191 11.484L14.6667 10.956L13.1511 12.2467V9.97333L14.6667 7.77333L16.1822 9.97333V12.2467L17.4925 13.3613V16.0013L20.5236 18.04V24.1707H22.9289L23.6622 26.4H20.5333H14.6667V14.2413V14.1093L16.5244 15.356V13.7427L14.6667 12.3053V11.0293L14.1191 11.484ZM14.1876 10.34L13.728 10.7653V11.6453L14.1876 11.2493V10.34ZM16.3484 17.0427L15.7618 16.72V18.612L16.3484 18.876V17.0427ZM16.3484 20.6213L15.7618 20.416V22.308L16.3484 22.44V20.6213ZM16.3484 24.4347L15.7618 24.376V26.2533H16.3484V24.4347ZM18.9005 26.2533H19.2916V24.7573L18.9005 24.7133V26.2533ZM18.9005 23.0413L19.2916 23.1293V21.6333L18.9005 21.5013V23.0413ZM18.9005 20.02L19.2916 20.196V18.7L18.9005 18.48V20.02ZM17.4533 26.2533H17.9325V24.6107L17.4533 24.552V26.2533ZM17.4533 22.704L17.9325 22.8213V21.1787L17.4533 21.0173V22.704ZM17.4533 19.3747L17.9325 19.5947V17.952L17.4533 17.688V19.3747ZM15.0676 11.264L15.5271 11.66V10.78L15.0676 10.3547V11.264Z" fill="#FFC22D"/>
<path d="M14.1191 11.484L13.1511 12.3053V12.2467L14.6667 10.9707L14.1191 11.484Z" fill="#FFC22D"/>
<path d="M25.4711 26.3267L3.91111 26.4L14.6667 42.5333L25.4711 26.3267Z" fill="#FFC22D"/>
<path d="M52.1458 19.5C51.5521 16.2187 48.9271 14.2812 45.7083 14.2812C41.6146 14.2812 38.6458 17.4375 38.6458 22.5C38.6458 27.5625 41.6146 30.7187 45.7083 30.7187C48.9271 30.7187 51.5521 28.7812 52.1458 25.5H50.2083C49.7396 27.7188 47.8333 28.9062 45.7083 28.9062C42.8021 28.9062 40.5208 26.6562 40.5208 22.5C40.5208 18.3438 42.8021 16.0937 45.7083 16.0937C47.8333 16.0937 49.7396 17.2812 50.2083 19.5H52.1458ZM54.4017 16.2187H59.4329V30.5H61.3704V16.2187H66.4017V14.5H54.4017V16.2187ZM69.3919 30.5H71.3294V24.6562H74.8294C78.556 24.6562 80.2357 22.3906 80.2357 19.5625C80.2357 16.7344 78.556 14.5 74.7982 14.5H69.3919V30.5ZM71.3294 22.9375V16.2187H74.7357C77.3372 16.2187 78.3294 17.6406 78.3294 19.5625C78.3294 21.4844 77.3372 22.9375 74.7669 22.9375H71.3294ZM96.8568 22.5C96.8568 17.4375 93.888 14.2812 89.7943 14.2812C85.7005 14.2812 82.7318 17.4375 82.7318 22.5C82.7318 27.5625 85.7005 30.7187 89.7943 30.7187C93.888 30.7187 96.8568 27.5625 96.8568 22.5ZM94.9818 22.5C94.9818 26.6562 92.7005 28.9062 89.7943 28.9062C86.888 28.9062 84.6068 26.6562 84.6068 22.5C84.6068 18.3438 86.888 16.0937 89.7943 16.0937C92.7005 16.0937 94.9818 18.3438 94.9818 22.5ZM100.115 14.5V30.5H101.99L110.708 17.9375H110.865V30.5H112.802V14.5H110.927L102.177 27.0937H102.021V14.5H100.115ZM107.99 10.5C107.99 11.3125 107.552 12.0312 106.458 12.0312C105.365 12.0312 104.958 11.3125 104.958 10.5H103.24C103.24 12.1875 104.49 13.375 106.458 13.375C108.458 13.375 109.708 12.1875 109.708 10.5H107.99ZM126.085 30.5H128.398L121.71 21.5312L128.179 14.5H125.867L119.46 21.4375H118.617V14.5H116.679V30.5H118.617V23.1562H120.585L126.085 30.5ZM143.65 22.5C143.65 17.4375 140.681 14.2812 136.587 14.2812C132.493 14.2812 129.525 17.4375 129.525 22.5C129.525 27.5625 132.493 30.7187 136.587 30.7187C140.681 30.7187 143.65 27.5625 143.65 22.5ZM141.775 22.5C141.775 26.6562 139.493 28.9062 136.587 28.9062C133.681 28.9062 131.4 26.6562 131.4 22.5C131.4 18.3438 133.681 16.0937 136.587 16.0937C139.493 16.0937 141.775 18.3438 141.775 22.5ZM146.908 30.5H148.845V23.3437H157.376V30.5H159.314V14.5H157.376V21.625H148.845V14.5H146.908V30.5ZM162.318 16.2187H167.349V30.5H169.286V16.2187H174.318V14.5H162.318V16.2187ZM177.308 30.5H179.245V24.6562H182.745C186.472 24.6562 188.152 22.3906 188.152 19.5625C188.152 16.7344 186.472 14.5 182.714 14.5H177.308V30.5ZM179.245 22.9375V16.2187H182.652C185.253 16.2187 186.245 17.6406 186.245 19.5625C186.245 21.4844 185.253 22.9375 182.683 22.9375H179.245ZM204.773 22.5C204.773 17.4375 201.804 14.2812 197.71 14.2812C193.617 14.2812 190.648 17.4375 190.648 22.5C190.648 27.5625 193.617 30.7187 197.71 30.7187C201.804 30.7187 204.773 27.5625 204.773 22.5ZM202.898 22.5C202.898 26.6562 200.617 28.9062 197.71 28.9062C194.804 28.9062 192.523 26.6562 192.523 22.5C192.523 18.3438 194.804 16.0937 197.71 16.0937C200.617 16.0937 202.898 18.3438 202.898 22.5ZM206.656 30.5H207.249C210.781 30.5 211.492 27.625 211.687 22.5938L211.937 16.2187H217.906V30.5H219.843V14.5H210.093L209.812 22.2187C209.64 26.9375 209.124 28.7187 207.124 28.7187H206.656V30.5ZM225.652 21.2188V14.5H223.714V30.5H229.714C233.152 30.5 235.027 28.5625 235.027 25.7812C235.027 23 233.152 21.2188 229.714 21.2188H225.652ZM225.652 22.9375H229.714C231.902 22.9375 233.12 24.2187 233.12 25.75C233.12 27.3125 231.902 28.8125 229.714 28.8125H225.652V22.9375Z" fill="#212B31"/>
</svg>

<svg width="237" height="44" fill="none" xmlns="http://www.w3.org/2000/svg"><path d="M14.667 2.068L1.379 22l13.288 19.932L27.955 22 14.667 2.068zm0-2.068l14.666 22-14.666 22L0 22 14.667 0z" fill="#FFC22D"/><path d="M10.677 16.852l-1.31 1.76-.547 5.573v-6.13l1.857-1.203zM14.12 11.484l-1.702 1.79-.577 2.713V13.36l1.31-1.114v.058l.968-.821z" fill="#FFC22D"/><path d="M6.404 24.185H8.82l-2.21.411L5.67 26.4l.733-2.215zM12.809 15.356v-1.613l1.858-1.438v1.804l-1.858 1.247zM13.562 26.253h-.577v-1.818l.577-.059v1.877zM13.562 22.308l-.577.132v-1.819l.577-.205v1.892zM13.562 18.612l-.577.264v-1.833l.577-.323v1.892zM11.88 26.253h-.47v-1.642l.47-.059v1.701zM11.88 22.704l-.47.103v-1.643l.47-.161v1.701zM11.88 19.375l-.47.205v-1.643l.47-.264v1.702zM10.433 26.253h-.391v-1.496l.39-.044v1.54zM10.433 23.041l-.391.088v-1.496l.39-.132v1.54zM10.433 20.02l-.391.176V18.7l.39-.22v1.54z" fill="#FFC22D"/><path d="M14.12 11.484l.547-.528-1.516 1.29V9.974l1.516-2.2 1.515 2.2v2.274l1.31 1.114v2.64l3.032 2.039v6.13h2.405l.733 2.23h-8.995V14.109l1.857 1.247v-1.613l-1.857-1.438V11.03l-.548.455zm.068-1.144l-.46.425v.88l.46-.396v-.909zm2.16 6.703l-.586-.323v1.892l.586.264v-1.833zm0 3.578l-.586-.205v1.892l.586.132v-1.819zm0 3.814l-.586-.059v1.877h.586v-1.818zm2.553 1.818h.39v-1.496l-.39-.044v1.54zm0-3.212l.39.088v-1.496l-.39-.132v1.54zm0-3.021l.39.176V18.7l-.39-.22v1.54zm-1.448 6.233h.48v-1.642l-.48-.059v1.701zm0-3.549l.48.117V21.18l-.48-.162v1.687zm0-3.33l.48.22v-1.642l-.48-.264v1.687zm-2.385-8.11l.46.396v-.88l-.46-.425v.909z" fill="#FFC22D"/><path d="M14.12 11.484l-.969.821v-.058l1.516-1.276-.548.513zM25.471 26.327l-21.56.073 10.756 16.133L25.47 26.327z" fill="#FFC22D"/><path d="M52.146 19.5c-.594-3.281-3.219-5.219-6.438-5.219-4.093 0-7.062 3.156-7.062 8.219 0 5.063 2.969 8.219 7.062 8.219 3.22 0 5.844-1.938 6.438-5.219h-1.938c-.468 2.219-2.375 3.406-4.5 3.406-2.906 0-5.187-2.25-5.187-6.406s2.281-6.406 5.187-6.406c2.125 0 4.032 1.187 4.5 3.406h1.938zm2.256-3.281h5.03V30.5h1.938V16.219h5.032V14.5h-12v1.719zM69.392 30.5h1.937v-5.844h3.5c3.727 0 5.407-2.265 5.407-5.093 0-2.829-1.68-5.063-5.438-5.063h-5.406v16zm1.937-7.563V16.22h3.407c2.601 0 3.593 1.422 3.593 3.343 0 1.922-.992 3.375-3.562 3.375h-3.438zm25.528-.437c0-5.063-2.969-8.219-7.063-8.219-4.093 0-7.062 3.156-7.062 8.219 0 5.063 2.969 8.219 7.062 8.219 4.094 0 7.063-3.157 7.063-8.219zm-1.875 0c0 4.156-2.281 6.406-5.188 6.406-2.906 0-5.187-2.25-5.187-6.406s2.281-6.406 5.187-6.406c2.907 0 5.188 2.25 5.188 6.406zm5.133-8v16h1.875l8.718-12.563h.157V30.5h1.937v-16h-1.875l-8.75 12.594h-.156V14.5h-1.906zm7.875-4c0 .813-.438 1.531-1.532 1.531-1.093 0-1.5-.719-1.5-1.531h-1.718c0 1.688 1.25 2.875 3.218 2.875 2 0 3.25-1.188 3.25-2.875h-1.718zm18.095 20h2.313l-6.688-8.969 6.469-7.031h-2.312l-6.407 6.938h-.843V14.5h-1.938v16h1.938v-7.344h1.968l5.5 7.344zm17.565-8c0-5.063-2.969-8.219-7.063-8.219-4.094 0-7.062 3.156-7.062 8.219 0 5.063 2.968 8.219 7.062 8.219s7.063-3.157 7.063-8.219zm-1.875 0c0 4.156-2.282 6.406-5.188 6.406-2.906 0-5.187-2.25-5.187-6.406s2.281-6.406 5.187-6.406 5.188 2.25 5.188 6.406zm5.133 8h1.937v-7.156h8.531V30.5h1.938v-16h-1.938v7.125h-8.531V14.5h-1.937v16zm15.41-14.281h5.031V30.5h1.937V16.219h5.032V14.5h-12v1.719zm14.99 14.281h1.937v-5.844h3.5c3.727 0 5.407-2.265 5.407-5.093 0-2.829-1.68-5.063-5.438-5.063h-5.406v16zm1.937-7.563V16.22h3.407c2.601 0 3.593 1.422 3.593 3.343 0 1.922-.992 3.375-3.562 3.375h-3.438zm25.528-.437c0-5.063-2.969-8.219-7.063-8.219-4.093 0-7.062 3.156-7.062 8.219 0 5.063 2.969 8.219 7.062 8.219 4.094 0 7.063-3.157 7.063-8.219zm-1.875 0c0 4.156-2.281 6.406-5.188 6.406-2.906 0-5.187-2.25-5.187-6.406s2.281-6.406 5.187-6.406c2.907 0 5.188 2.25 5.188 6.406zm3.758 8h.593c3.532 0 4.243-2.875 4.438-7.906l.25-6.375h5.969V30.5h1.937v-16h-9.75l-.281 7.719c-.172 4.718-.688 6.5-2.688 6.5h-.468V30.5zm18.996-9.281V14.5h-1.938v16h6c3.438 0 5.313-1.938 5.313-4.719 0-2.781-1.875-4.562-5.313-4.562h-4.062zm0 1.718h4.062c2.188 0 3.406 1.282 3.406 2.813 0 1.563-1.218 3.063-3.406 3.063h-4.062v-5.875z" fill="#212B31"/></svg>
